X:540
L:1/8
Q:1/4=120
M:4/4
K:C
 C |[K:C]"^May 2nd 1841, James Winder" c2 | g2 g>g g>fe>d | c2 c>c c2 c'>b | a>bc'>a g2 f>e | 
 e2 d>d d2 f>e | f2 f>f f2 g2 | a>bc'>c' c'2 g>f | edcg a>gf>e | d2 d>d d2 :: d2 | d2 d>d d>ef>d | 
 e2 c>c c2 c'b | a2 a>a a>bc'>a | b2 g>g g2 f>e | f>gaa efgg | a>bc'c' c'2 g>f | 
 (3(efg) (3(agf) e2 d2 | c2 c>c c2 :|

